X: 194
T:The Rigmy Reel
M:2/2
L:1/8
R:Reel
Z:Rob Greenway
K:ADor
e2dg egdB|G2BG DGBd|e2dg egdB|GBdB BAag|!
e2dg egdB|G2BG DGBd|c2Ac BAGE|DEGA BAA2:|!
|:(3Bcd ef g2cB|cgec dBG2|(3Bcd ef gc~c2|dBGB cAA2|!
(3Bcd ef gc~c2|gcec dBGB|c2Ac BAGE|DEGA BAA2:|!
<end>
<start>
